X:1
T:[ID 2v-7a (=2-137a)]
T:[ID 2v-7a (=2-137a)]
T:Bezeichnung standardisiert: Sonata Andante Sonata Andante
T:Urheber unbekannt Datum in der hier transkribierten schriftlichen Quelle: 1767
C:Urheber unbekannt
C:Datum in der hier transkribierten schriftlichen Quelle: 1767
L:1/8
M:2/4
K:G
V:1 treble 
V:1
 Bdfg | f3/2g/4a/4 gB | ce d/c/B/A/ | Bbd'b | a3/2b/4c'/4 bd | e>c' b/a/g/f/ | gc B/A/G/F/ | %7
 Gb a/g/f/e/ | de f2 | z g/f/ e/d/^c/B/ | ^c/ed/ c/B/A/^G/ | A/^cB/ A/G/F/E/ | D/F/B/d/ f/ga/ | %13
 g2 e2 | ffff | g4 | f2 ^c2 | de f2 | fd g/f/e/d/ | ^cd e2 | e^c f/e/d/c/ | FG A2 | AF B/A/G/F/ | %23
 EF G2 | GE A/G/F/E/ | F2 GF/E/ | Fgfe | dF GF/E/ | FGFe | e2 d z :: f2 ^df | eG AG/F/ | Gaaf | %33
 eB AG/F/ | G2 z2 | e2 ^ce | dF GF/E/ | Fgfe | dFGE | dd/^c/ d/e/f/g/ | a2 z a | a g2 f | %42
 gf/e/ d/c/B/A/ | G2 z G | GA B2 | BG c/B/A/G/ | FG A2 | AF B/A/G/F/ | GA B2 | BG c/B/A/G/ | %50
 FG A2 | AF B/A/G/F/ | GB cB/A/ | BcBA | GB cB/A/ | BcBa | a2 g z :| %57

